flaticon/interaction/folder-8.svg

<svg xmlns="http://www.w3.org/2000/svg" width="32" height="32" viewBox="0 0 24 24">
    <path d="M 21.109375 19.425781 C 21.808594 18.660156 22.238281 17.644531 22.238281 16.527344 C 22.238281 14.144531 20.300781 12.207031 17.917969 12.207031 C 15.539062 12.207031 13.601562 14.144531 13.601562 16.527344 C 13.601562 18.90625 15.539062 20.84375 17.917969 20.84375 C 18.894531 20.84375 19.792969 20.515625 20.519531 19.964844 L 22.917969 22.476562 C 22.996094 22.558594 23.101562 22.601562 23.207031 22.601562 C 23.308594 22.601562 23.40625 22.5625 23.484375 22.488281 C 23.644531 22.335938 23.648438 22.082031 23.496094 21.921875 Z M 14.398438 16.527344 C 14.398438 14.585938 15.976562 13.007812 17.917969 13.007812 C 19.859375 13.007812 21.4375 14.585938 21.4375 16.527344 C 21.4375 18.464844 19.859375 20.042969 17.917969 20.042969 C 15.976562 20.042969 14.398438 18.464844 14.398438 16.527344 Z M 14.398438 16.527344"/>
    <path d="M 10.609375 4.199219 L 8.726562 1.566406 L 8.605469 1.398438 L 0 1.398438 L 0 22.601562 L 14.398438 22.601562 L 14.398438 21.800781 L 0.800781 21.800781 L 0.800781 2.199219 L 8.195312 2.199219 L 10.195312 5 L 10.199219 5 L 12.074219 7.621094 C 12.152344 7.730469 12.277344 7.789062 12.398438 7.789062 L 12.398438 7.800781 L 23.199219 7.800781 L 23.199219 14.199219 L 24 14.199219 L 24 4.199219 Z M 12.613281 7 L 11.183594 5 L 23.199219 5 L 23.199219 7 Z M 12.613281 7"/>
</svg>

<svg xmlns="http://www.w3.org/2000/svg" width="32" height="32" viewBox="0 0 24 24">
    <path d="M21.11 19.426a4.284 4.284 0 0 0 1.128-2.899 4.324 4.324 0 0 0-4.32-4.32 4.324 4.324 0 0 0-4.316 4.32 4.323 4.323 0 0 0 4.316 4.317c.977 0 1.875-.328 2.602-.88l2.398 2.513a.4.4 0 1 0 .578-.555zm-6.712-2.899a3.523 3.523 0 0 1 3.52-3.52 3.523 3.523 0 0 1 3.52 3.52 3.522 3.522 0 0 1-3.52 3.516 3.522 3.522 0 0 1-3.52-3.516zm0 0"/>
    <path d="M10.61 4.2L8.726 1.565l-.122-.168H0v21.204h14.398V21.8H.801V2.199h7.394l2 2.801h.004l1.875 2.621c.078.11.203.168.324.168v.012H23.2v6.398H24v-10zM12.612 7l-1.43-2H23.2v2zm0 0"/>
</svg>
